src/svg/yoast.svg

<svg height="1000" width="875.0" xmlns="http://www.w3.org/2000/svg">
    <path d="m178.3 148.4h363.3l-13.7 37h-349.6c-77.5 0-140.4 61.7-140.4 137.3v401.1c0 69.2 48.6 137.3 164.1 137.3v37.3h-23.7c-97.8 0-178.3-78.5-178.3-174.8v-400.9c0-96.3 79.5-174.3 178.3-174.3z m447.5-109.3h129.9c-280.9 738.4-284.6 779.1-360.8 858-40.6 42.2-96.3 61.9-152.9 63.8v-99.8c96.1-15 126.2-97.4 126.2-147 0-39.3 1.1-24.6-160.4-436h119.9l98.5 305.9z m249.2 276.3v583h-418c12.9-18.7 20.9-31.8 23.7-37.9h356.4v-545.1c0-63.4-33.4-101.3-94.1-122.8l13.1-34.4c81.4 26.6 118.9 84.2 118.9 157.2z" />
  </svg>

<svg height="1000" width="875" xmlns="http://www.w3.org/2000/svg"><path d="M178.3 148.4h363.3l-13.7 37H178.3c-77.5 0 -140.4 61.7 -140.4 137.3v401.1c0 69.2 48.6 137.3 164.1 137.3v37.3h-23.7C80.5 898.4 0 819.9 0 723.6V322.7C0 226.4 79.5 148.4 178.3 148.4zM625.8 39.1h129.9C474.8 777.5 471.1 818.2 394.9 897.1 354.3 939.3 298.6 959 242 960.9v-99.8c96.1 -15 126.2 -97.4 126.2 -147 0 -39.3 1.1 -24.6 -160.4 -436h119.9L426.2 584 625.8 39.1zM875 315.4v583H457c12.9 -18.7 20.9 -31.8 23.7 -37.9h356.4V315.4C837.1 252 803.7 214.1 743 192.6l13.1 -34.4C837.5 184.8 875 242.4 875 315.4z"/></svg>
